Numix/16/status/indicator-keyboard-Cm-4.svg

<?xml version="1.0" encoding="UTF-8" standalone="no"?>
<svg
   xmlns:dc="http://purl.org/dc/elements/1.1/"
   xmlns:cc="http://creativecommons.org/ns#"
   xmlns:rdf="http://www.w3.org/1999/02/22-rdf-syntax-ns#"
   xmlns:svg="http://www.w3.org/2000/svg"
   xmlns="http://www.w3.org/2000/svg"
   xmlns:sodipodi="http://sodipodi.sourceforge.net/DTD/sodipodi-0.dtd"
   xmlns:inkscape="http://www.inkscape.org/namespaces/inkscape"
   viewBox="0 0 16 16"
   id="svg2"
   version="1.1"
   inkscape:version="0.91 r13725"
   sodipodi:docname="indicator-keyboard-Cm-4.svg">
  <metadata
     id="metadata14">
    <rdf:RDF>
      <cc:Work
         rdf:about="">
        <dc:format>image/svg+xml</dc:format>
        <dc:type
           rdf:resource="http://purl.org/dc/dcmitype/StillImage" />
      </cc:Work>
    </rdf:RDF>
  </metadata>
  <defs
     id="defs12" />
  <sodipodi:namedview
     pagecolor="#ffffff"
     bordercolor="#666666"
     borderopacity="1"
     objecttolerance="10"
     gridtolerance="10"
     guidetolerance="10"
     inkscape:pageopacity="0"
     inkscape:pageshadow="2"
     inkscape:window-width="459"
     inkscape:window-height="369"
     id="namedview10"
     showgrid="false"
     inkscape:zoom="14.75"
     inkscape:cx="8"
     inkscape:cy="8"
     inkscape:window-x="65"
     inkscape:window-y="24"
     inkscape:window-maximized="0"
     inkscape:current-layer="svg2" />
  <path
     style="fill:#ececec;fill-opacity:1"
     d="M 1.5996094 0 C 0.71320937 2.9605947e-16 0 0.71320937 0 1.5996094 L 0 14.400391 C 2.9605947e-16 15.286791 0.71320937 16 1.5996094 16 L 14.400391 16 C 15.286791 16 16 15.286791 16 14.400391 L 16 1.5996094 C 16 0.71320937 15.286791 0 14.400391 0 L 1.5996094 0 z M 3.0292969 4.7246094 C 3.2632969 4.7246094 3.4759687 4.7395312 3.6679688 4.7695312 C 3.8599688 4.7995313 4.027875 4.8387187 4.171875 4.8867188 C 4.315875 4.9287188 4.4390156 4.9734844 4.5410156 5.0214844 C 4.6430156 5.0634844 4.7213906 5.1026719 4.7753906 5.1386719 L 4.5761719 5.6699219 C 4.4261719 5.5799219 4.234 5.4922031 4 5.4082031 C 3.772 5.3182031 3.4884844 5.2734375 3.1464844 5.2734375 C 2.7564844 5.2734375 2.4131406 5.3387031 2.1191406 5.4707031 C 1.8311406 5.6027031 1.588625 5.7892969 1.390625 6.0292969 C 1.192625 6.2692969 1.0434062 6.5547656 0.94140625 6.8847656 C 0.84540625 7.2147656 0.796875 7.5804219 0.796875 7.9824219 C 0.796875 8.3964219 0.84540625 8.7714219 0.94140625 9.1074219 C 1.0434062 9.4374219 1.1888594 9.719125 1.3808594 9.953125 C 1.5728594 10.187125 1.8079844 10.366188 2.0839844 10.492188 C 2.3659844 10.618187 2.686875 10.681641 3.046875 10.681641 C 3.442875 10.681641 3.7731094 10.646219 4.0371094 10.574219 C 4.3071094 10.496219 4.5104375 10.417844 4.6484375 10.339844 L 4.8203125 10.861328 C 4.7783125 10.891328 4.7055156 10.928703 4.6035156 10.970703 C 4.5015156 11.006703 4.3727969 11.045891 4.2167969 11.087891 C 4.0607969 11.129891 3.8797813 11.161547 3.6757812 11.185547 C 3.4717812 11.215547 3.2441875 11.230469 2.9921875 11.230469 C 2.5901875 11.230469 2.2151875 11.159625 1.8671875 11.015625 C 1.5251875 10.871625 1.2247969 10.660766 0.96679688 10.384766 C 0.71479688 10.108765 0.51523437 9.7691875 0.36523438 9.3671875 C 0.22123438 8.9591875 0.1484375 8.4946563 0.1484375 7.9726562 C 0.1484375 7.4506563 0.2268125 6.9898906 0.3828125 6.5878906 C 0.5448125 6.1798906 0.75748439 5.8365469 1.0214844 5.5605469 C 1.2854844 5.2845469 1.5914531 5.0774531 1.9394531 4.9394531 C 2.2874531 4.7954531 2.6512969 4.7246094 3.0292969 4.7246094 z M 7.6132812 6.3535156 C 8.2012813 6.3535156 8.626625 6.5232344 8.890625 6.8652344 C 8.920625 6.8412344 8.9785 6.8020469 9.0625 6.7480469 C 9.1525 6.6880469 9.2625312 6.6283594 9.3945312 6.5683594 C 9.5265312 6.5083594 9.6795156 6.4580156 9.8535156 6.4160156 C 10.033515 6.3740156 10.231266 6.3535156 10.447266 6.3535156 C 10.801266 6.3535156 11.086734 6.407625 11.302734 6.515625 C 11.524734 6.617625 11.696406 6.7630781 11.816406 6.9550781 C 11.936406 7.1410781 12.016594 7.3668594 12.058594 7.6308594 C 12.100594 7.8948594 12.121094 8.1821406 12.121094 8.4941406 L 12.121094 11.095703 L 11.537109 11.095703 L 11.537109 8.6835938 C 11.537109 8.3775938 11.522187 8.1145781 11.492188 7.8925781 C 11.468188 7.6645781 11.414078 7.4779844 11.330078 7.3339844 C 11.252078 7.1839844 11.138281 7.0739531 10.988281 7.0019531 C 10.838281 6.9239531 10.642344 6.8847656 10.402344 6.8847656 C 10.222344 6.8847656 10.058203 6.9015 9.9082031 6.9375 C 9.7642031 6.9675 9.6372969 7.0066875 9.5292969 7.0546875 C 9.4212969 7.1026875 9.3317656 7.1512188 9.2597656 7.1992188 C 9.1937656 7.2472188 9.1452344 7.2826406 9.1152344 7.3066406 C 9.1692344 7.4626406 9.2084219 7.6398906 9.2324219 7.8378906 C 9.2624219 8.0298906 9.2773437 8.2332187 9.2773438 8.4492188 L 9.2773438 11.095703 L 8.6933594 11.095703 L 8.6933594 8.6835938 C 8.6933594 8.3775938 8.6784375 8.1145781 8.6484375 7.8925781 C 8.6244375 7.6645781 8.5703281 7.4779844 8.4863281 7.3339844 C 8.4023281 7.1839844 8.281 7.0739531 8.125 7.0019531 C 7.975 6.9239531 7.7754375 6.8847656 7.5234375 6.8847656 C 7.2414375 6.8847656 7.0007344 6.8996875 6.8027344 6.9296875 C 6.6107344 6.9596875 6.4875937 6.9857656 6.4335938 7.0097656 L 6.4335938 11.095703 L 5.8496094 11.095703 L 5.8496094 6.6054688 C 6.0236094 6.5574688 6.2474375 6.5033594 6.5234375 6.4433594 C 6.8054375 6.3833594 7.1692813 6.3535156 7.6132812 6.3535156 z M 14.951172 8.8417969 L 15.347656 8.8417969 L 15.347656 11.486328 L 15.851562 11.486328 L 15.851562 11.796875 L 15.347656 11.796875 L 15.347656 12.896484 L 14.974609 12.896484 L 14.974609 11.796875 L 13.136719 11.796875 L 13.136719 11.5625 C 13.206919 11.3753 13.304887 11.163687 13.429688 10.929688 C 13.558387 10.695688 13.703381 10.456637 13.863281 10.210938 C 14.023181 9.9652374 14.195612 9.7261874 14.382812 9.4921875 C 14.570012 9.2542875 14.760072 9.0367969 14.951172 8.8417969 z M 14.974609 9.2695312 C 14.838109 9.4099312 14.698994 9.5706063 14.558594 9.7539062 C 14.418194 9.9372063 14.282997 10.129225 14.154297 10.328125 C 14.029497 10.523125 13.913888 10.719069 13.804688 10.917969 C 13.695488 11.116869 13.603397 11.306928 13.529297 11.486328 L 14.974609 11.486328 L 14.974609 9.2695312 z "
     id="path4" />
</svg>

<svg xmlns="http://www.w3.org/2000/svg" viewBox="0 0 16 16">
 <path d="m 1.6 0 c -0.886 0 -1.6 0.713 -1.6 1.6 l 0 12.801 c 0 0.886 0.713 1.6 1.6 1.6 l 12.801 0 c 0.886 0 1.6 -0.713 1.6 -1.6 l 0 -12.801 c 0 -0.886 -0.713 -1.6 -1.6 -1.6 l -12.801 0 z m 1.43 4.725 c 0.234 0 0.447 0.015 0.639 0.045 c 0.192 0.03 0.36 0.069 0.504 0.117 c 0.144 0.042 0.267 0.087 0.369 0.135 c 0.102 0.042 0.18 0.081 0.234 0.117 l -0.199 0.531 c -0.15 -0.09 -0.342 -0.178 -0.576 -0.262 c -0.228 -0.09 -0.512 -0.135 -0.854 -0.135 c -0.39 0 -0.733 0.065 -1.027 0.197 c -0.288 0.132 -0.531 0.319 -0.729 0.559 c -0.198 0.24 -0.347 0.525 -0.449 0.855 c -0.096 0.33 -0.145 0.696 -0.145 1.098 c 0 0.414 0.049 0.789 0.145 1.125 c 0.102 0.33 0.247 0.612 0.439 0.846 c 0.192 0.234 0.427 0.413 0.703 0.539 c 0.282 0.126 0.603 0.189 0.963 0.189 c 0.396 0 0.726 -0.035 0.99 -0.107 c 0.27 -0.078 0.473 -0.156 0.611 -0.234 l 0.172 0.521 c -0.042 0.03 -0.115 0.067 -0.217 0.109 c -0.102 0.036 -0.231 0.075 -0.387 0.117 c -0.156 0.042 -0.337 0.074 -0.541 0.098 c -0.204 0.03 -0.432 0.045 -0.684 0.045 c -0.402 0 -0.777 -0.071 -1.125 -0.215 c -0.342 -0.144 -0.642 -0.355 -0.9 -0.631 c -0.252 -0.276 -0.452 -0.616 -0.602 -1.018 c -0.144 -0.408 -0.217 -0.873 -0.217 -1.395 c 0 -0.522 0.078 -0.983 0.234 -1.385 c 0.162 -0.408 0.375 -0.751 0.639 -1.027 c 0.264 -0.276 0.57 -0.483 0.918 -0.621 c 0.348 -0.144 0.712 -0.215 1.09 -0.215 z m 4.584 1.629 c 0.588 0 1.013 0.17 1.277 0.512 c 0.03 -0.024 0.088 -0.063 0.172 -0.117 c 0.09 -0.06 0.2 -0.12 0.332 -0.18 c 0.132 -0.06 0.285 -0.11 0.459 -0.152 c 0.18 -0.042 0.378 -0.063 0.594 -0.063 c 0.354 0 0.639 0.054 0.855 0.162 c 0.222 0.102 0.394 0.247 0.514 0.439 c 0.12 0.186 0.2 0.412 0.242 0.676 c 0.042 0.264 0.063 0.551 0.063 0.863 l 0 2.602 l -0.584 0 l 0 -2.412 c 0 -0.306 -0.015 -0.569 -0.045 -0.791 c -0.024 -0.228 -0.078 -0.415 -0.162 -0.559 c -0.078 -0.15 -0.192 -0.26 -0.342 -0.332 c -0.15 -0.078 -0.346 -0.117 -0.586 -0.117 c -0.18 0 -0.344 0.017 -0.494 0.053 c -0.144 0.03 -0.271 0.069 -0.379 0.117 c -0.108 0.048 -0.198 0.097 -0.27 0.145 c -0.066 0.048 -0.115 0.083 -0.145 0.107 c 0.054 0.156 0.093 0.333 0.117 0.531 c 0.03 0.192 0.045 0.395 0.045 0.611 l 0 2.646 l -0.584 0 l 0 -2.412 c 0 -0.306 -0.015 -0.569 -0.045 -0.791 c -0.024 -0.228 -0.078 -0.415 -0.162 -0.559 c -0.084 -0.15 -0.205 -0.26 -0.361 -0.332 c -0.15 -0.078 -0.35 -0.117 -0.602 -0.117 c -0.282 0 -0.523 0.015 -0.721 0.045 c -0.192 0.03 -0.315 0.056 -0.369 0.08 l 0 4.086 l -0.584 0 l 0 -4.49 c 0.174 -0.048 0.398 -0.102 0.674 -0.162 c 0.282 -0.06 0.646 -0.09 1.09 -0.09 z m 7.338 2.488 l 0.396 0 l 0 2.645 l 0.504 0 l 0 0.311 l -0.504 0 l 0 1.1 l -0.373 0 l 0 -1.1 l -1.838 0 l 0 -0.234 c 0.07 -0.187 0.168 -0.399 0.293 -0.633 c 0.129 -0.234 0.274 -0.473 0.434 -0.719 c 0.16 -0.246 0.332 -0.485 0.52 -0.719 c 0.187 -0.238 0.377 -0.455 0.568 -0.65 z m 0.023 0.428 c -0.136 0.14 -0.276 0.301 -0.416 0.484 c -0.14 0.183 -0.276 0.375 -0.404 0.574 c -0.125 0.195 -0.24 0.391 -0.35 0.59 c -0.109 0.199 -0.201 0.389 -0.275 0.568 l 1.445 0 l 0 -2.217 z" style="fill:#ececec;fill-opacity:1"/>
</svg>
